public/svg/wallet-icons/metaMask.svg

<svg fill="none" height="28" viewBox="0 0 28 28" width="28" xmlns="http://www.w3.org/2000/svg"><path d="m0 0h28v28h-28z" fill="#fff"/><g stroke-linecap="round" stroke-linejoin="round" stroke-width=".087885"><path d="m24.0891 3.1199-8.7445 6.49466 1.6171-3.83176z" fill="#e2761b" stroke="#e2761b"/><path d="m3.90207 3.1199 8.67423 6.55618-1.538-3.89328z" fill="#e4761b" stroke="#e4761b"/><path d="m20.9429 18.1745-2.329 3.5681 4.9831 1.371 1.4325-4.86z" fill="#e4761b" stroke="#e4761b"/><path d="m2.97929 18.2536 1.42372 4.86 4.98306-1.371-2.32894-3.5681z" fill="#e4761b" stroke="#e4761b"/><path d="m9.10483 12.1456-1.38857 2.1005 4.94794.2197-.1758-5.31703z" fill="#e4761b" stroke="#e4761b"/><path d="m18.8864 12.1456-3.4275-3.05835-.1143 5.37855 4.9391-.2197z" fill="#e4761b" stroke="#e4761b"/><path d="m9.38606 21.7426 2.97054-1.4501-2.56627-2.0037z" fill="#e4761b" stroke="#e4761b"/><path d="m15.6347 20.2925 2.9792 1.4501-.413-3.4538z" fill="#e4761b" stroke="#e4761b"/><path d="m18.6139 21.7426-2.9792-1.4501.2372 1.9423-.0263.8173z" fill="#d7c1b3" stroke="#d7c1b3"/><path d="m9.38606 21.7426 2.76834 1.3095-.0176-.8173.2198-1.9423z" fill="#d7c1b3" stroke="#d7c1b3"/><path d="m12.1984 17.0056-2.47838-.7294 1.74888-.7997z" fill="#233447" stroke="#233447"/><path d="m15.7928 17.0056.7295-1.5291 1.7577.7997z" fill="#233447" stroke="#233447"/><path d="m9.38606 21.7426.42185-3.5681-2.75079.0791z" fill="#cd6116" stroke="#cd6116"/><path d="m18.1921 18.1745.4218 3.5681 2.329-3.489z" fill="#cd6116" stroke="#cd6116"/><path d="m20.2837 14.2461-4.9391.2197.457 2.5399.7295-1.5292 1.7577.7997z" fill="#cd6116" stroke="#cd6116"/><path d="m9.72002 16.2762 1.75768-.7997.7207 1.5292.4658-2.5399-4.94794-.2197z" fill="#cd6116" stroke="#cd6116"/><path d="m7.71626 14.2461 2.07407 4.0427-.07031-2.0126z" fill="#e4751f" stroke="#e4751f"/><path d="m18.2888 16.2762-.0879 2.0126 2.0828-4.0427z" fill="#e4751f" stroke="#e4751f"/><path d="m12.6642 14.4658-.4658 2.5399.58 2.9968.1318-3.946z" fill="#e4751f" stroke="#e4751f"/><path d="m15.3446 14.4658-.2373 1.5819.1055 3.9548.5888-2.9968z" fill="#e4751f" stroke="#e4751f"/><path d="m15.8016 17.0056-.5888 2.9969.4219.29 2.5662-2.0037.0879-2.0126z" fill="#f6851b" stroke="#f6851b"/><path d="m9.72002 16.2762.07031 2.0126 2.56627 2.0037.4218-.29-.58-2.9969z" fill="#f6851b" stroke="#f6851b"/><path d="m15.8456 23.0521.0263-.8173-.2197-.1934h-3.3132l-.2022.1934.0176.8173-2.76834-1.3095.96674.791 1.9598 1.3622h3.366l1.9686-1.3622.9667-.791z" fill="#c0ad9e" stroke="#c0ad9e"/><path d="m15.6347 20.2925-.4219-.29h-2.4344l-.4218.29-.2198 1.9423.2022-.1934h3.3132l.2197.1934z" fill="#161616" stroke="#161616"/><path d="m24.4583 10.0364.747-3.58568-1.1162-3.33082-8.4544 6.27495 3.2517 2.75075 4.5963 1.3447 1.0195-1.1865-.4394-.3164.703-.6415-.5448-.4219.703-.5361z" fill="#763d16" stroke="#763d16"/><path d="m2.79472 6.45072.74702 3.58568-.47457.3515.70307.5361-.53609.4219.70307.6415-.43942.3164 1.01067 1.1865 4.59636-1.3447 3.25177-2.75075-8.45453-6.27495z" fill="#763d16" stroke="#763d16"/><path d="m23.4827 13.4903-4.5963-1.3447 1.3973 2.1005-2.0828 4.0427 2.742-.0352h4.0866z" fill="#f6851b" stroke="#f6851b"/><path d="m9.10484 12.1456-4.59636 1.3447-1.52919 4.7633h4.07784l2.7332.0352-2.07407-4.0427z" fill="#f6851b" stroke="#f6851b"/><path d="m15.3446 14.4658.2901-5.07095 1.3358-3.61205h-5.9322l1.3183 3.61205.3076 5.07095.1054 1.5995.0088 3.9372h2.4344l.0176-3.9372z" fill="#f6851b" stroke="#f6851b"/></g></svg>

<svg width="28" height="28" viewBox="0 0 28 28" fill="none" xmlns="http://www.w3.org/2000/svg">
<rect width="28" height="28" fill="white"/>
<path d="M24.0891 3.1199L15.3446 9.61456L16.9617 5.7828L24.0891 3.1199Z" fill="#E2761B" stroke="#E2761B" stroke-width="0.0878845" stroke-linecap="round" stroke-linejoin="round"/>
<path d="M3.90207 3.1199L12.5763 9.67608L11.0383 5.7828L3.90207 3.1199Z" fill="#E4761B" stroke="#E4761B" stroke-width="0.0878845" stroke-linecap="round" stroke-linejoin="round"/>
<path d="M20.9429 18.1745L18.6139 21.7426L23.597 23.1136L25.0295 18.2536L20.9429 18.1745Z" fill="#E4761B" stroke="#E4761B" stroke-width="0.0878845" stroke-linecap="round" stroke-linejoin="round"/>
<path d="M2.97929 18.2536L4.40301 23.1136L9.38607 21.7426L7.05713 18.1745L2.97929 18.2536Z" fill="#E4761B" stroke="#E4761B" stroke-width="0.0878845" stroke-linecap="round" stroke-linejoin="round"/>
<path d="M9.10483 12.1456L7.71626 14.2461L12.6642 14.4658L12.4884 9.14877L9.10483 12.1456Z" fill="#E4761B" stroke="#E4761B" stroke-width="0.0878845" stroke-linecap="round" stroke-linejoin="round"/>
<path d="M18.8864 12.1456L15.4589 9.08725L15.3446 14.4658L20.2837 14.2461L18.8864 12.1456Z" fill="#E4761B" stroke="#E4761B" stroke-width="0.0878845" stroke-linecap="round" stroke-linejoin="round"/>
<path d="M9.38606 21.7426L12.3566 20.2925L9.79033 18.2888L9.38606 21.7426Z" fill="#E4761B" stroke="#E4761B" stroke-width="0.0878845" stroke-linecap="round" stroke-linejoin="round"/>
<path d="M15.6347 20.2925L18.6139 21.7426L18.2009 18.2888L15.6347 20.2925Z" fill="#E4761B" stroke="#E4761B" stroke-width="0.0878845" stroke-linecap="round" stroke-linejoin="round"/>
<path d="M18.6139 21.7426L15.6347 20.2925L15.8719 22.2348L15.8456 23.0521L18.6139 21.7426Z" fill="#D7C1B3" stroke="#D7C1B3" stroke-width="0.0878845" stroke-linecap="round" stroke-linejoin="round"/>
<path d="M9.38606 21.7426L12.1544 23.0521L12.1368 22.2348L12.3566 20.2925L9.38606 21.7426Z" fill="#D7C1B3" stroke="#D7C1B3" stroke-width="0.0878845" stroke-linecap="round" stroke-linejoin="round"/>
<path d="M12.1984 17.0056L9.72002 16.2762L11.4689 15.4765L12.1984 17.0056Z" fill="#233447" stroke="#233447" stroke-width="0.0878845" stroke-linecap="round" stroke-linejoin="round"/>
<path d="M15.7928 17.0056L16.5223 15.4765L18.28 16.2762L15.7928 17.0056Z" fill="#233447" stroke="#233447" stroke-width="0.0878845" stroke-linecap="round" stroke-linejoin="round"/>
<path d="M9.38606 21.7426L9.80791 18.1745L7.05712 18.2536L9.38606 21.7426Z" fill="#CD6116" stroke="#CD6116" stroke-width="0.0878845" stroke-linecap="round" stroke-linejoin="round"/>
<path d="M18.1921 18.1745L18.6139 21.7426L20.9429 18.2536L18.1921 18.1745Z" fill="#CD6116" stroke="#CD6116" stroke-width="0.0878845" stroke-linecap="round" stroke-linejoin="round"/>
<path d="M20.2837 14.2461L15.3446 14.4658L15.8016 17.0057L16.5311 15.4765L18.2888 16.2762L20.2837 14.2461Z" fill="#CD6116" stroke="#CD6116" stroke-width="0.0878845" stroke-linecap="round" stroke-linejoin="round"/>
<path d="M9.72002 16.2762L11.4777 15.4765L12.1984 17.0057L12.6642 14.4658L7.71626 14.2461L9.72002 16.2762Z" fill="#CD6116" stroke="#CD6116" stroke-width="0.0878845" stroke-linecap="round" stroke-linejoin="round"/>
<path d="M7.71626 14.2461L9.79033 18.2888L9.72002 16.2762L7.71626 14.2461Z" fill="#E4751F" stroke="#E4751F" stroke-width="0.0878845" stroke-linecap="round" stroke-linejoin="round"/>
<path d="M18.2888 16.2762L18.2009 18.2888L20.2837 14.2461L18.2888 16.2762Z" fill="#E4751F" stroke="#E4751F" stroke-width="0.0878845" stroke-linecap="round" stroke-linejoin="round"/>
<path d="M12.6642 14.4658L12.1984 17.0057L12.7784 20.0025L12.9102 16.0565L12.6642 14.4658Z" fill="#E4751F" stroke="#E4751F" stroke-width="0.0878845" stroke-linecap="round" stroke-linejoin="round"/>
<path d="M15.3446 14.4658L15.1073 16.0477L15.2128 20.0025L15.8016 17.0057L15.3446 14.4658Z" fill="#E4751F" stroke="#E4751F" stroke-width="0.0878845" stroke-linecap="round" stroke-linejoin="round"/>
<path d="M15.8016 17.0056L15.2128 20.0025L15.6347 20.2925L18.2009 18.2888L18.2888 16.2762L15.8016 17.0056Z" fill="#F6851B" stroke="#F6851B" stroke-width="0.0878845" stroke-linecap="round" stroke-linejoin="round"/>
<path d="M9.72002 16.2762L9.79033 18.2888L12.3566 20.2925L12.7784 20.0025L12.1984 17.0056L9.72002 16.2762Z" fill="#F6851B" stroke="#F6851B" stroke-width="0.0878845" stroke-linecap="round" stroke-linejoin="round"/>
<path d="M15.8456 23.0521L15.8719 22.2348L15.6522 22.0414H12.339L12.1368 22.2348L12.1544 23.0521L9.38606 21.7426L10.3528 22.5336L12.3126 23.8958H15.6786L17.6472 22.5336L18.6139 21.7426L15.8456 23.0521Z" fill="#C0AD9E" stroke="#C0AD9E" stroke-width="0.0878845" stroke-linecap="round" stroke-linejoin="round"/>
<path d="M15.6347 20.2925L15.2128 20.0025H12.7784L12.3566 20.2925L12.1368 22.2348L12.339 22.0414H15.6522L15.8719 22.2348L15.6347 20.2925Z" fill="#161616" stroke="#161616" stroke-width="0.0878845" stroke-linecap="round" stroke-linejoin="round"/>
<path d="M24.4583 10.0364L25.2053 6.45072L24.0891 3.1199L15.6347 9.39485L18.8864 12.1456L23.4827 13.4903L24.5022 12.3038L24.0628 11.9874L24.7658 11.3459L24.221 10.924L24.924 10.3879L24.4583 10.0364Z" fill="#763D16" stroke="#763D16" stroke-width="0.0878845" stroke-linecap="round" stroke-linejoin="round"/>
<path d="M2.79472 6.45072L3.54174 10.0364L3.06717 10.3879L3.77024 10.924L3.23415 11.3459L3.93722 11.9874L3.4978 12.3038L4.50847 13.4903L9.10483 12.1456L12.3566 9.39485L3.90207 3.1199L2.79472 6.45072Z" fill="#763D16" stroke="#763D16" stroke-width="0.0878845" stroke-linecap="round" stroke-linejoin="round"/>
<path d="M23.4827 13.4903L18.8864 12.1456L20.2837 14.2461L18.2009 18.2888L20.9429 18.2536H25.0295L23.4827 13.4903Z" fill="#F6851B" stroke="#F6851B" stroke-width="0.0878845" stroke-linecap="round" stroke-linejoin="round"/>
<path d="M9.10484 12.1456L4.50848 13.4903L2.97929 18.2536H7.05713L9.79033 18.2888L7.71626 14.2461L9.10484 12.1456Z" fill="#F6851B" stroke="#F6851B" stroke-width="0.0878845" stroke-linecap="round" stroke-linejoin="round"/>
<path d="M15.3446 14.4658L15.6347 9.39485L16.9705 5.7828H11.0383L12.3566 9.39485L12.6642 14.4658L12.7696 16.0653L12.7784 20.0025H15.2128L15.2304 16.0653L15.3446 14.4658Z" fill="#F6851B" stroke="#F6851B" stroke-width="0.0878845" stroke-linecap="round" stroke-linejoin="round"/>
</svg>
